app/images/icon/contract.svg

<svg width="61" height="60" viewBox="0 0 61 60" fill="none" xmlns="http://www.w3.org/2000/svg">
<path d="M59.8999 14.2203C59.6934 13.4522 59.1895 12.7974 58.5 12.4004C57.8101 12.0015 56.9898 11.8936 56.2203 12.1002C55.4517 12.3072 54.7969 12.8106 54.4 13.5001L53.9 14.3702C53.4249 14.0972 52.8179 14.2579 52.5401 14.7305L50 19.0601L49.1299 18.5601C48.8995 18.4268 48.625 18.3907 48.3682 18.46C48.1109 18.5298 47.8921 18.6988 47.7598 18.9302C47.4888 19.4083 47.6539 20.0157 48.1299 20.2901L49 20.7901L40.5 35.5201L38.3999 41.1304L37.3999 43.0001C36.8145 44.0186 36.877 45.2847 37.5601 46.2403L35.3101 49.0001L34.6802 47.4205C34.396 46.7164 33.7383 46.2339 32.982 46.1749C32.2251 46.1153 31.5 46.4893 31.1099 47.1402L30.75 47.7501L30.4102 43.7501C30.3321 42.8038 29.5992 42.043 28.6568 41.9288C27.7139 41.815 26.8213 42.3799 26.5201 43.2803L24.0601 50.6602C23.8882 51.1822 24.1695 51.7447 24.69 51.9205C24.7876 51.9659 24.8926 51.9932 25 52.0001C25.4297 52.0015 25.8125 51.7276 25.9502 51.3204L28.3999 43.9405L28.75 48.0001C28.8223 48.8663 29.4449 49.5865 30.2916 49.7828C31.1382 49.9791 32.0142 49.606 32.46 48.8604L32.8301 48.2501L33.4502 49.8204C33.7134 50.482 34.3086 50.9542 35.0132 51.0591C35.7178 51.1641 36.4249 50.8863 36.8702 50.3301L39.2002 47.3804C39.4581 47.4478 39.7237 47.4815 39.9903 47.4805C41.0621 47.4888 42.0572 46.9244 42.6001 46.0001L43.6001 44.3301L47.4102 39.7003L56 24.7901L56.8702 25.2901C57.1021 25.4229 57.271 25.6421 57.3399 25.9004C57.4092 26.1568 57.3731 26.4302 57.2403 26.6602L53.2403 33.5904C53.0894 33.8179 53.0381 34.0972 53.0987 34.3638C53.1592 34.6299 53.3257 34.8599 53.5601 35.0001C53.7906 35.1338 54.065 35.17 54.3218 35.1006C54.5791 35.0308 54.7979 34.8619 54.9302 34.6304L58.9302 27.7003C59.3291 27.0103 59.4371 26.19 59.23 25.4205C59.023 24.6519 58.5196 23.9971 57.8301 23.6002L56.96 23.1002L59.46 18.7701C59.733 18.295 59.5723 17.6885 59.1001 17.4102L59.6001 16.5401C60.0098 15.8394 60.1182 15.0025 59.8999 14.2203V14.2203ZM56.1299 14.5001C56.2623 14.2686 56.482 14.0992 56.7403 14.0303C56.9971 13.9669 57.2686 14.0025 57.5 14.1304C57.732 14.2628 57.9009 14.4825 57.9703 14.7403C58.0337 14.9971 57.9981 15.2686 57.8702 15.5001L57.3702 16.3702L55.6299 15.3702L56.1299 14.5001ZM42.5 42.4205L42 42.1304L40.5201 41.2701L41.94 37.4703L45.0899 39.2901L42.5 42.4205ZM39.5 45.3101C39.0777 45.0157 38.9478 44.4493 39.2002 44.0001L39.7002 43.1304L41.44 44.1304L40.94 44.9903C40.7999 45.2335 40.5645 45.4063 40.2906 45.4673C40.0166 45.5279 39.73 45.4712 39.5 45.3101ZM46.23 37.6504L42.7701 35.6504L50.7701 21.7901L54.23 23.7901L46.23 37.6504ZM55.23 22.0601L51.7701 20.0601L53.7701 16.6002L57.23 18.6002L55.23 22.0601Z" fill="#E93123"/>
<path d="M15.7798 44.8101L12.2402 48.3404L10.1201 46.2203C9.72998 45.8326 9.1001 45.8326 8.70996 46.2203C8.52051 46.4083 8.41406 46.6637 8.41406 46.9303C8.41406 47.1969 8.52051 47.4527 8.70996 47.6402L10.8301 49.7603C11.2051 50.1324 11.7119 50.3409 12.2402 50.3404C12.7715 50.3433 13.2827 50.1349 13.6602 49.7603L17.1899 46.2203C17.5298 45.8233 17.5068 45.232 17.1377 44.8629C16.7681 44.4932 16.1768 44.4703 15.7798 44.8101Z" fill="#E93123"/>
<path d="M4 47.5C4 52.1948 7.80566 56 12.5 56C17.1943 56 21 52.1948 21 47.5C21 46.9477 20.5522 46.5 20 46.5C19.4478 46.5 19 46.9477 19 47.5C19 51.0898 16.0898 54 12.5 54C8.91016 54 6 51.0898 6 47.5C6 43.9101 8.91016 41 12.5 41C13.9072 40.9961 15.2769 41.4526 16.3999 42.3003C16.8418 42.6318 17.4687 42.542 17.7998 42.1001C18.1313 41.6582 18.042 41.0317 17.6001 40.7002C15.0244 38.7685 11.5781 38.458 8.69873 39.8974C5.81885 41.3374 4 44.2807 4 47.5Z" fill="#E93123"/>
<path d="M36 8C36.5522 8 37 7.55273 37 7C37 6.44775 36.5522 6 36 6H10C9.44775 6 9 6.44775 9 7V11C9 11.5527 9.44775 12 10 12H36C36.5522 12 37 11.5527 37 11C37 10.4478 36.5522 10 36 10H11V8H36Z" fill="#0037A1"/>
<path d="M13 14C12.4478 14 12 14.4478 12 15C12 15.5527 12.4478 16 13 16H33C33.5522 16 34 15.5527 34 15C34 14.4478 33.5522 14 33 14H13Z" fill="#0037A1"/>
<path d="M39 21H17C16.4478 21 16 21.4478 16 22C16 22.5527 16.4478 23 17 23H39C39.5522 23 40 22.5527 40 22C40 21.4478 39.5522 21 39 21Z" fill="#0037A1"/>
<path d="M29 28C29 27.4478 28.5522 27 28 27H8C7.44775 27 7 27.4478 7 28C7 28.5527 7.44775 29 8 29H28C28.5522 29 29 28.5527 29 28Z" fill="#0037A1"/>
<path d="M39 27H32C31.4478 27 31 27.4478 31 28C31 28.5527 31.4478 29 32 29H39C39.5522 29 40 28.5527 40 28C40 27.4478 39.5522 27 39 27Z" fill="#0037A1"/>
<path d="M18 34C18.5522 34 19 33.5527 19 33C19 32.4478 18.5522 32 18 32H8C7.44775 32 7 32.4478 7 33C7 33.5527 7.44775 34 8 34H18Z" fill="#0037A1"/>
<path d="M22 34H29C29.5522 34 30 33.5527 30 33C30 32.4478 29.5522 32 29 32H22C21.4478 32 21 32.4478 21 33C21 33.5527 21.4478 34 22 34Z" fill="#0037A1"/>
<path d="M45 46C44.4478 46 44 46.4478 44 47V57C44 57.5527 43.5522 58 43 58H3C2.44775 58 2 57.5527 2 57V3C2 2.44775 2.44775 2 3 2H43C43.5522 2 44 2.44775 44 3V21.7803C44 22.3325 44.4478 22.7803 45 22.7803C45.5522 22.7803 46 22.3325 46 21.7803V3C46 1.34326 44.6567 0 43 0H3C1.34326 0 0 1.34326 0 3V57C0 58.6572 1.34326 60 3 60H43C44.6567 60 46 58.6572 46 57V47C46 46.4478 45.5522 46 45 46Z" fill="#0037A1"/>
</svg>

<svg width="61" height="60" fill="none" xmlns="http://www.w3.org/2000/svg">
    <path d="M59.9 14.22a3 3 0 0 0-1.4-1.82 3 3 0 0 0-4.1 1.1l-.5.87a1 1 0 0 0-1.36.36L50 19.06l-.87-.5a1.001 1.001 0 0 0-1.37.37 1 1 0 0 0 .37 1.36l.87.5-8.5 14.73-2.1 5.61-1 1.87a3 3 0 0 0 .16 3.24L35.31 49l-.63-1.58a2 2 0 0 0-3.57-.28l-.36.61-.34-4a2 2 0 0 0-3.89-.47l-2.46 7.38a1 1 0 0 0 .63 1.26.867.867 0 0 0 .31.08 1 1 0 0 0 .95-.68l2.45-7.38.35 4.06a2 2 0 0 0 3.71.86l.37-.61.62 1.57a2 2 0 0 0 3.42.51l2.33-2.95c.258.068.524.101.79.1A3 3 0 0 0 42.6 46l1-1.67 3.81-4.63L56 24.79l.87.5a1 1 0 0 1 .37 1.37l-4 6.93a.998.998 0 0 0 .32 1.41 1 1 0 0 0 1.37-.37l4-6.93a2.998 2.998 0 0 0-1.1-4.1l-.87-.5 2.5-4.33a1 1 0 0 0-.36-1.36l.5-.87c.41-.7.518-1.537.3-2.32Zm-3.77.28a1 1 0 0 1 .61-.47 1.05 1.05 0 0 1 .76.1c.232.133.4.352.47.61a1.05 1.05 0 0 1-.1.76l-.5.87-1.74-1 .5-.87ZM42.5 42.42l-.5-.29-1.48-.86 1.42-3.8 3.15 1.82-2.59 3.13Zm-3 2.89a1 1 0 0 1-.3-1.31l.5-.87 1.74 1-.5.86a1 1 0 0 1-1.44.32Zm6.73-7.66-3.46-2 8-13.86 3.46 2-8 13.86Zm9-15.59-3.46-2 2-3.46 3.46 2-2 3.46ZM15.78 44.81l-3.54 3.53-2.12-2.12a1 1 0 1 0-1.41 1.42l2.12 2.12c.375.372.882.58 1.41.58a2 2 0 0 0 1.42-.58l3.53-3.54a1 1 0 0 0-1.41-1.41Z" fill="#E93123"/>
    <path d="M4 47.5a8.5 8.5 0 0 0 8.5 8.5 8.5 8.5 0 0 0 8.5-8.5 1 1 0 0 0-2 0 6.5 6.5 0 1 1-6.5-6.5 6.443 6.443 0 0 1 3.9 1.3 1 1 0 1 0 1.2-1.6A8.501 8.501 0 0 0 4 47.5Z" fill="#E93123"/>
    <path d="M36 8a1 1 0 1 0 0-2H10a1 1 0 0 0-1 1v4a1 1 0 0 0 1 1h26a1 1 0 1 0 0-2H11V8h25ZM13 14a1 1 0 0 0 0 2h20a1 1 0 1 0 0-2H13ZM39 21H17a1 1 0 0 0 0 2h22a1 1 0 1 0 0-2ZM29 28a1 1 0 0 0-1-1H8a1 1 0 0 0 0 2h20a1 1 0 0 0 1-1ZM39 27h-7a1 1 0 0 0 0 2h7a1 1 0 1 0 0-2ZM18 34a1 1 0 1 0 0-2H8a1 1 0 0 0 0 2h10ZM22 34h7a1 1 0 1 0 0-2h-7a1 1 0 0 0 0 2Z" fill="#0037A1"/>
    <path d="M45 46a1 1 0 0 0-1 1v10a1 1 0 0 1-1 1H3a1 1 0 0 1-1-1V3a1 1 0 0 1 1-1h40a1 1 0 0 1 1 1v18.78a1 1 0 0 0 2 0V3a3 3 0 0 0-3-3H3a3 3 0 0 0-3 3v54a3 3 0 0 0 3 3h40a3 3 0 0 0 3-3V47a1 1 0 0 0-1-1Z" fill="#0037A1"/>
</svg>
